X:1
T:Merry Conceit [2], The
T:Merry Conceit [2], The
T:Nathaniel Kynaston
C:Nathaniel Kynaston
L:1/8
M:6/8
K:F
V:1 treble 
V:1
 c |: faf gbg | a3 f2 e | def gdf | e3 c2 B | Acf Bdf | Acf G2 B | Acf f2 e |1 f3- f2 c :|2 %9
 f3- f2 a || gec ceg | a3 f2 e | d>ef efd | ^c3 A2 e | faf eae | faf eae | fed Ad^c | d3- d2 d/e/ | %18
 fed cBA | GAB ABc | d>ef gdf | e3 c2 f/g/ | a2 z b2 z | a2 z gec | def f2 e | f3- f2 z || %26

